X:136
T:Road To Boston
S:Jim Coon to CoMandoList TOW
R:Reel
M:2/4
L:1/8
K:D
|:"D"ff/f/ ff/f/|gf ed|\
"A7"cd ec|"D"dA "A7"FA|!
"D"ff/f/ ff/f/|gf ed|\
"G"cd "A7"ef|"D"d2-d2:|!
|:"D"aa/a/ aa/a/|"B7"ba gf|\
"Em"gg/g/ gg/g/|"A7"ag fe|!
"D"ff/f/ ff/f/|"G"gf ed|\
"A7"cd ef|1"D"de fg:|2"D"d2-d2||
